!!!OTL: 1818. Kinderlied von drei Jungfern (Nornen).
!!!ARE: Europa, Mitteleuropa, Deutschland; France, Elsass
!!!SCT: E1818
!!!TXL: @@NDS
!!!YEM: Copyright 1995, estate of Helmut Schaffrath.
**kern	**text
*ICvox	*
*M2/4	*
*k[b-]	*
*F:	*
=1	=1
!LO:TX:a:t=Elſaß: Weckerlin Nr. 20.	!
{8cc	Ri-
8dd	-ti,
8cc	ri-
8dd	-ti,
=2	=2
4cc	Reß-
4a}	-lä,
=3	=3
{8cc	ʒ'Ba-
8dd	-ſel
8cc	iſch
8dd	a
=4	=4
4cc	Schleß-
4a}	-lä,
=5	=5
{4cc	ʒ'Rom
8cc	iſch
8dd	a
=6	=6
8cc	Glok-
8cc	-ke-
4a}	-hus,
=7	=7
{4cc	's_lue-
8cc	-ge
8dd	drei
=8	=8
8cc	Jung-
8cc	-fern
4a}	drus
=9	=9
{8f	Ei-
8f	-ne
4c	ſpinnt
=10	=10
4f	Si-
4f}	-de.
=11	=11
{8f	d'an-
8f	-der
4c	bind
=12	=12
4f	d'Wi-
4f}	-de,
=13	=13
{8f	d'drit-
8f	-te
4c	ſchniddt
=14	=14
4f	Hawerſträu
4f}	.
=15	=15
{16cc	Bhüt
16cc	di
16b-	Gott,
16b-	mi
16a	lie-
16a	-bi
16g	lie-
16g	-bi
=16	=16
4f	Frau!
4r}	.
==	==
!!!AGN: Kinder -, Wiegen -, Schlaf - Lied
!!!ONB: ESAC (Essen Associative Code) Database: ERK3
!!!AMT: simple duple
!!!AIN: vox
!!!EED: Helmut Schaffrath
!!!EEV: 1.0
!!!GTL: Einige Kinderlieder. a) Wiegenlieder.
!!!URL-scan: https://rosdok.uni-rostock.de/mcrviewer/recordIdentifier/rosdok_ppn745177999/iview2/phys_0587.iview2?x=-4.404412318551749&y=-15.302229552064091&scale=0.6456904138606623&rotation=0&layout=singlePageLayout
!!!ENC: Anna Maria Matuszewska
!!!EEV: 2025/09/01
*-	*-
